src/assets/img/icon_vtitle.svg

<svg width="10" height="10" viewBox="0 0 10 10" fill="none" xmlns="http://www.w3.org/2000/svg"><path fill-rule="evenodd" clip-rule="evenodd" d="M0 0h2v2H0V0zm4 0h2v2H4V0zm6 0H8v2h2V0zM0 4h2v2H0V4zm6 0H4v2h2V4zm2 0h2v2H8V4zM2 8H0v2h2V8zm2 0h2v2H4V8zm6 0H8v2h2V8z" fill="#FE7520"/></svg>

<svg width="10" height="10" viewBox="0 0 10 10" fill="none" xmlns="http://www.w3.org/2000/svg">
<path fill-rule="evenodd" clip-rule="evenodd" d="M0 0H2V2H0V0ZM4 0H6V2H4V0ZM10 0H8V2H10V0ZM0 4H2V6H0V4ZM6 4H4V6H6V4ZM8 4H10V6H8V4ZM2 8H0V10H2V8ZM4 8H6V10H4V8ZM10 8H8V10H10V8Z" fill="#FE7520"/>
</svg>
